X:1
T:[ID 3-11a]
T:[ID 3-11a]
T:Bezeichnung standardisiert: Menuett Menuet
T:Urheber unbekannt Datum in der hier transkribierten schriftlichen Quelle: 1773
C:Urheber unbekannt
C:Datum in der hier transkribierten schriftlichen Quelle: 1773
L:1/8
M:3/4
K:G
V:1 treble 
V:1
 g2 g2 g2 | f3 e d2 | e2 e2 e2 | d3 c B2 | c2 ecec | B3 c d2 | ed c2 B2 |{c} B4 A2 :: A2 cAcA | %9
 G3 A B2 | B2 dBdB | A3 B c2 | c2 ecec | B3 c d2 | (3edc B2 A2 |{B} A4 G2 :| %16

